!! 00000] TT[00
!! NN
!!!OTL: Xiu yifu baihua dou ren ai
!!!ARE: Asia, China,ÿHubei, Yengcheng
!! Ethnic Group: Han
!! I, 377
!!!SCT: C0104
!!!YEM: Copyright 1995, estate of Helmut Schaffrath.
**kern
*ICvox
*Ivox
*M2/4
*k[]
*C:
{4dd
16cc
16dd
16gg
16ee
=1
8.dd
16cc
16a
16cc
8a}
=2
{4dd
16cc
16dd
16gg
16ee
=3
8.dd
16cc
16a
16cc
8a}
=4
{8g
4g
8a
=5
8dd
8dd
16cc
16dd
8a
=6
8.a
16cc
8g
8g
=7
2a}
=8
{8dd
8a
4dd
=9
8dd
8gg
4a
=10
8a
8a
16g
16a
8cc
=11
8.a
16g
8g
8e}
=12
{8d
16d
16d
8g
8g
=13
8a
8g
8f
8e
=14
8d
4d
8c
=15
4.d
8r}
=16
{8a
4a
8cc
=17
8a
8g
8g
8e}
=18
{8d
16d
16d
8g
8g
=19
8a
8g
8f
8e
=20
8d
4d
8c
=21
2d}
==
!!!AGN: Wuge, Dengdiao, Gaoqiao, Xiuhebao diao. Xin minge
!! neues Volkslied
!!    Notiert ist die 3. Strophe. In den beiden ersten Strophen entspricht
!!    Phrase 7 der 5. Phrase.  Vereinzelt Verzierungen.
!!!ONB: ESAC (Essen Associative Code) Database: CHINA
!!!AMT: simple duple
!!!AIN: vox
!!!EED: Helmut Schaffrath
!!!EEV: 1.0
*-
